X:1
T:Där borta
T:Ludvig Norman (1831-1885)
T:Om våren
T:©PA Aglert Edition may be freely distributed, duplicated, performed and recorded
T:©PA Aglert Edition may be freely distributed, duplicated, performed and recorded
T:©PA Aglert Edition may be freely distributed, duplicated, performed and recorded
T:©PA Aglert Edition may be freely distributed, duplicated, performed and recorded
T:©PA Aglert Edition may be freely distributed, duplicated, performed and recorded
C:Ludvig Norman (1831-1885)
Z:©PA Aglert
Z:Edition may be freely distributed, duplicated, performed and recorded
%%score [ 1 2 3 4 ]
L:1/8
Q:1/4=90
M:3/4
K:G
V:1 treble nm="S"
V:2 treble nm="A"
V:3 treble-8 nm="T"
V:4 bass nm="B"
V:1
"^Maestoso ma non troppa Lento"!f! B2"^Tutti" | B4 c2 | d4 z!p! A | A3 A AB | c2 z2!mf! c2 | %5
w: O|äp- pel-|träd! Mig|säg vart står din|håg? Vart|
 e4 d2 | d3!<(! B dg!<)! | !>!f4 e2 | A4 z2 |!f! B z !>!B3 c | d4 z!p! A | A!>(!A A3 B!>)! | %12
w: vill du|hän i all din|bloms- ter-|skrud?|Säg, äp- pel-|träd! Du|vå- rens un- ga|
 c4 z2 |!p! e2 A2 A2 | A3!<(! A Ae!<)! | (e2 d2) c2 | c2 B2!mf! B2 | B3!<(! B eg!<)! | %18
w: brud,|Vill du med|al- la di- na|ro- * sor|rö- da vid|vå- rens förs- ta|
 g>^c c2!f! d2 | (f4 e2) | d4!p!"^Solo" A2 | A3 A AB | c4!<(! B2!<)! | d4!>)!!>(! B2 | A4 A2 | %25
w: an- komst re'n för-|blö- *|da? En|bi- svärm sö- ker|i din|kro- na|tröst, och|
 A4!<(! B2 | d>c!<)! c2!mf! c2 | =f4 B2 | c2 z2 z!f! G | g4 e2 | d3 c ec | %31
w: äng- la-|kö- rer lju- da|i mitt|bröst, och|äng- la-|kö- rer lju- da|
!p!"^cresc." A4!<(! (B>A) | A4!<)!"^Tutti"!f! A2 | B4 c2 | d4 z!p! A | A3 A AB | c4 c2 | e4 d2 | %38
w: i mitt _|bröst. Se|trä- det|här så|tyst i dröm- mar|står Lik-|som det|
 d3!<(! B dg!<)! | f4!>(! e2 | A2 A2!>)!!pp! A2 | d4 c2 | B3 B AA | (G2 d2) c2 | c2 B2!<(! G2 | %45
w: å- ter sa- lig-|he- ten|vun- nit, Sitt|pa- ra-|dis, sitt hem- land|å- * ter-|fun- nit, sitt|
 g4!<)! e2 | !>!e3!>(! e dG!>)! | B4 A2 | A2 G2!pp!"^un poco rit." G2 | d4 (ed) | d6 |] %51
w: pa- ra-|dis, sitt hem- land|å- ter-|fun- nit, sitt|pa- ra- *|dis!|
V:2
!f! G2"^Tutti" | G4 G2 | F4 z!p! F | F3 =F E^G | A2 z2!mf! A2 | A4 c2 | B3!<(! G B!<)!B | %7
w: O|äp- pel-|träd! Mig|säg vart står din|håg? Vart|vill du|hän i all din|
 !>!A4 G2 | F4 z2 |!f! G z !>!G3 G | F4 z!p! F | F!>(!F =F3!>)! F | E4 z2 | G4 GG |!<(! G6!<)! | %15
w: bloms- ter-|skrud?|Säg, äp- pel-|träd! Du|vå- rens un- ga|brud,|Vill du med|al-|
 G2 F2 A2 | A4!mf! A2 | A2 G!<(!G BB!<)! | A>!<(!A AA A!<)!A |!f! (d2 A2 G2) | F4!p!"^Solo" F2 | %21
w: la di- na|ro- sor|rö- da vid vå- rens|förs- ta an- komst re'n för-|blö- * *|da? En|
 F3 F FG | A4 G2 | B4 G2 | F4 F2 | (=F2 E2)!<(! ^G2 | ^G>A!<)! A2!mf! A2 | A4 !courtesy!=G2 | %28
w: bi- svärm sö- ker|i din|kro- na|tröst, och|äng- * la-|kö- rer lju- da|i mitt|
 G2 z2 z!f! G | G4 G2 | G>G G2 G2 |!p!"^cresc." (G2!<(! E2) E2!<)! | (A2 G2)"^Tutti"!f! F2 | %33
w: bröst, och|äng- la-|kö- rer lju- da|i _ mitt|bröst. _ Se|
 G4 G2 | F4 z!p! F | F3 =F E^G | A4 A2 | A4 c2 | B3!<(! G B!<)!B | A4!>(! G2 | F2 F2!>)!!pp! F2 | %41
w: trä- det|här så|tyst i dröm- mar|står Lik-|som det|å- ter sa- lig-|he- ten|vun- nit, Sitt|
 =F4 E2 | D3 D =FF | =F4 F2 | =F2 F2 z2 | z2 z2!mf! G2 | !>!!courtesy!^F3!>(! F GG!>)! | GD E2 F2 | %48
w: pa- ra-|dis, sitt hem- land|å- ter-|fun- nit,|sitt|pa- ra- dis, sitt|hem- land å- ter-|
 F2 G2!pp! G2 | F4 F2 | G6 |] %51
w: fun- nit, sitt|pa- ra-|dis!|
V:3
!f! d2"^Tutti" | d4 G2 | A4 z!p! A | d3 A Ae | e2 z2!mf! c2 | (c2 A2) d2 | d3!<(! d B!<)!d | %7
w: O|äp- pel-|träd! Mig|säg vart står din|håg? Vart|vill _ du|hän i all din|
 !>!^d4 e2 | !courtesy!=d4 z2 |!f! d z !>!d3 G | A4 z!p! A | d!>(!A A3!>)! _A | G4 z2 | z6 | %14
w: bloms- ter-|skrud?|Säg, äp- pel-|träd! Du|vå- rens un- ga|brud,||
 e2!<(! A2 A2!<)! | A3 A Ae | (e2 ^d2)!mf! d2 | B2 B!<(!B ge!<)! | ^c>!<(!A AA d!<)!f | %19
w: Vill du med|al- la di- na|ro- * sor|rö- da vid vå- rens|förs- ta an- komst re'n för-|
!f! (d2 B2 ^c2) | A4!p!"^Solo" d2 | d3 d dd | d4 d2 |!<(! (d2!>(! G2) e2!<)!!>)! | A4 A2 | %25
w: blö- * *|da? En|bi- svärm sö- ker|i din|kro- * na|tröst, och|
 A4!<(! e2 | B>c!<)! c2!mf! c2 | d4 d2 | G2 z2 z!f! G | e4 c2 | G>G G2 c2 | %31
w: äng- la-|kö- rer lju- da|i mitt|bröst, och|äng- la-|kö- rer lju- da|
!p!"^cresc." c4!<(! ^c2!<)! | d4"^Tutti"!f! d2 | d4 G2 | A4 z!p! A | d3 A Ae | e4 c2 | (c2 A2) d2 | %38
w: i mitt|bröst. Se|trä- det|här så|tyst i dröm- mar|står Lik-|som _ det|
 d3!<(! d B!<)!d | ^d4!>(! e2 | !courtesy!=d2 A2!>)!!pp! d2 | G4 G2 | GG B2 c2 | (d2 G2) c2 | %44
w: å- ter sa- lig-|he- ten|vun- nit, Sitt|pa- ra-|dis, sitt hem- land|å- * ter-|
 d2 d2 z2 | z2 z2!mf! c2 | !>!c3!>(! c d!>)!e | dd c2 c2 | c2 B2!pp! B2 | A4 c2 | B6 |] %51
w: fun- nit,|sitt|pa- ra- dis, sitt|hem- land å- ter-|fun- nit, sitt|pa- ra-|dis!|
V:4
!f! G,2"^Tutti" | G,4 E,2 | D,4 z!p! D, | D,3 D, C,B,, | A,,2 z2!mf! A,2 | G,4 F,2 | %6
w: O|äp- pel-|träd! Mig|säg vart står din|håg? Vart|vill du|
 G,3!<(! G, G,!<)!G, | !>!B,,4 C,2 | D,4 z2 |!f! G, z !>!G,3 E, | D,4 z!p! D, | %11
w: hän i all din|bloms- ter-|skrud?|Säg, äp- pel-|träd! Du|
 D,!>(!D, C,3!>)! C, | C,4 C,2- | C,4 E,E, |!<(! C,6!<)! | ^C,2 D,2 E,2 | F,4!mf! B,,2 | %17
w: vå- rens un- ga|brud, Vill|_ du med|al-|la di- na|ro- sor|
 E,2 E,!<(!E, E,E,!<)! | E,>!<(!G, G,G, F,!<)!D, |!f! A,,6 | D,4!p!"^Solo" D,2 | D3 D A,G, | %22
w: rö- da vid vå- rens|förs- ta an- komst re'n för-|blö-|da? En|bi- svärm sö- ker|
 F,4 G,2 | B,,4 ^C,2 | D,4 D,2 | (D,2 C,2)!<(! B,,2 | A,,>A,,!<)! A,,2!mf! A,2 | D,4 =F,2 | %28
w: i din|kro- na|tröst, och|äng- * la-|kö- rer lju- da|i mitt|
 E,G, E,2 D,2 |!f! C,4 C,2 | E,4 C,2 |!p!"^cresc." C4!<(! G,2!<)! | (F,2 E,2)"^Tutti"!f! D,2 | %33
w: bröst, och äng- la-|kö- rer|lju- da|i mitt|bröst. _ Se|
 G,4 E,2 | D,4 z!p! D, | D,3 D, C,B,, | A,,4 A,2 | G,4 F,2 | G,3!<(! G, G,!<)!G, | B,,4!>(! C,2 | %40
w: trä- det|här så|tyst i dröm- mar|står Lik-|som det|å- ter sa- lig-|he- ten|
 D,2 D,2!>)!!pp! D,2 | B,,4 C,2 | D,3 D, C,C, | B,,4 A,,2 | G,,2 G,,2 z2 | z2 z2!mf! C,2 | %46
w: vun- nit, Sitt|pa- ra-|dis, sitt hem- land|å- ter-|fun- nit,|sitt|
 !>!A,,3!>(! A,, B,,!>)!C, | D,D, D,2 D,2 | D,2 G,2!pp! D,2 | [G,,D,]4 [G,,D,]2 | [G,,D,]6 |] %51
w: pa- ra- dis, sitt|hem- land å- ter-|fun- nit, sitt|pa- ra-|dis!|

